X:9458
T:Leddy from Cavan
R:Reel
S:
H:
N:
D:Paddy Carty & Conor Tully (Session Tape)
Z:Adrian Scahill
M:4/4
L:1/8
K:C
F2DF EDC2|Addc defd|c2cd cAGE|FEDF EDCE|\
DEFE DA,A,2|FGAF G2FG|Adde dcAG|1 FDEC D3E:|2 FDEC D2^FA||\
d2^fd adfd|c2ec gcec|d2^fd adfa|g3a ^fddc|\
Ad^fd adfd|cde^f g2fg|abga ^fged|^cAGE D2^FA:||
